!!!OTL: MEIN SCHATZ DER IST AUF DIE WANDERSCHAFT
!!!ARE: Europa, Mitteleuropa, Deutschland
!!!SCT: E0557A
!!!YEM: Copyright 1995, estate of Helmut Schaffrath.
**kern
*ICvox
*Ivox
*M4/4
*k[b-]
*d:
{8d
8e
=1
4fn
4d
4d
8d
8e
=2
4fn
4d
4d}
{4e
=3
4fn
8fn
8fn
4g
8fn
8g
=4
4.a
8b-
4a}
{8fn
8g
=5
4a
8a
8b-
4ccn
4a
=6
8b-
8a
8g
8fn
4.e}
{8e
=7
8fn
8e
8fn
8g
4a
8g
8e
=8
4d
4c#
4d}
==
!!!AGN: Liebes - Lied, Trennung
!!!ONB: ESAC (Essen Associative Code) Database: ERK1
!!!AMT: simple quadruple
!!!AIN: vox
!!!EED: Helmut Schaffrath
!!!EEV: 1.0
*-
